!!!COM: Béla Bartók
!!!OTL: [T353_Bar-w37p50-51m99-122]
**kern	**dynam	**kern	**dynam	**kern	**dynam	**kern	**dynam
*grp:A	*grp:A	*grp:A	*grp:A	*grp:B	*grp:B	*grp:B	*grp:B
*part4	*part4	*part3	*part3	*part2	*part2	*part1	*part1
*staff4	*	*staff3	*	*staff2	*	*staff1	*
*I"Violoncello	*	*I"Viola	*	*I"Violin II	*	*I"Violin I	*
*I'Vc.	*	*I'Vla.	*	*I'Vln. II	*	*I'Vln. I	*
*clefF4	*	*clefC3	*	*clefG2	*	*clefG2	*
*k[]	*	*k[]	*	*k[]	*	*k[]	*
*M2/4	*	*M2/4	*	*M2/4	*	*M2/4	*
=99	=99	=99	=99	=99	=99	=99	=99
!	!	!	!	!	!	!LO:TX:t=[[quarter]=152]	!
4r	.	4r	.	2r	.	2r	.
!	!LO:DY:ed=brack	!	!LO:DY:ed=brack	!	!	!	!
8B~	ff	8e~	ff	.	.	.	.
8r	.	8r	.	.	.	.	.
!!LO:REH:t=100
=100	=100	=100	=100	=100	=100	=100	=100
8B~	.	8e~	.	8B~ 8e	ff	8B~ 8e	ff
8r	.	8r	.	8r	.	8r	.
8r~	.	8r~	.	4r	.	4r	.
8B~	.	8e~	.	.	.	.	.
=101	=101	=101	=101	=101	=101	=101	101
8B~	.	8e~	.	8B~ 8e	.	8B~ 8e	.
8r	.	8r	.	8r	.	8r	.
4r	.	4r	.	4r	.	4r	.
=102	=102	=102	=102	=102	=102	=102	=102
2r	.	4r	.	8r	mf	8r	mf
!	!	!	!	!LO:TX:a:i:t=scherzando	!	!LO:TX:a:i:t=scherzando	!
.	.	.	.	(8g#XL	.	(8cc#XL	.
.	.	8r	.	8a#X)	.	8dd#X)	.
!	!	!LO:TX:t=P:problem: Cross-Measure beaming still needs to be applied.	!	!	!	!	!
.	.	(8F#XL \8c#X	mf	8gnJ	.	8ff#XJ	.
=103	=103	=103	=103	=103	=103	=103	=103
!	!	!	!	!LO:TX:t=P:problem: Cross-Measure beaming still needs to be applied.	!	!LO:TX:t=P:problem: Cross-Measure beaming still needs to be applied.	!
2r	.	8d 8a	.	(8f#XL	.	(8bL	.
.	.	8F#XJ \8c#X)	.	8g#X)	.	8cc#X)	.
.	.	8r	.	8e#XJ	.	8eeJ	.
.	.	(8F#L \8c#	.	(8g#L	.	(8cc#L	.
=104	=104	=104	=104	=104	=104	=104	=104
4r	.	8d 8a	.	8a#X)	.	8dd#X)	.
.	.	8F#XJ \8c#X)	.	8gnJ	.	8ff#XJ	.
8r	.	4r	.	4r	.	4r	.
!LO:TX:t=P:problem: Cross-Measure beaming still needs to be applied.	!	!	!	!	!	!	!
(8FF#XL 8C#X	f <	.	.	.	.	.	.
!!LO:REH:t=105
=105	=105	=105	=105	=105	=105	=105	=105
8D /8A	[ >	4r	.	2r	.	2r	.
8EE#XJ 8BB#X)	]	.	.	.	.	.	.
4r	.	8r	.	.	.	.	.
.	.	(8F#XL \8c#X	f <	.	.	.	.
=106	=106	=106	=106	=106	=106	=106	=106
8r	.	8d 8a	[ >	2r	.	2r	.
(8FF#XL 8C#X	f <	8F#XJ \8c#X)	]	.	.	.	.
8D 8A	[ >	8r	.	.	.	.	.
8EE#XJ 8BB#X)	]	8r	.	.	.	.	.
!!linebreak:original
=107	=107	=107	=107	=107	=107	=107	=107
4r	.	(8E#XL \8B#X	.	2r	.	2r	.
.	.	8d 8a	.	.	.	.	.
8r	.	8F#XJ \8c#X)	.	.	.	.	.
\(8AAL 8E	<	8r	.	.	.	.	.
=108	=108	=108	=108	=108	=108	=108	=108
8F 8c	[ >	4r	.	4r	.	2r	.
\8AAJ 8E)	]	.	.	.	.	.	.
\(8GGL 8D	mf	8r	.	8r	.	.	.
8EJ 8B)	.	/(8c#XL	mf	(8d#XL	mf	.	.
=109	=109	=109	=109	=109	=109	=109	=109
!	!	!	!	!LO:TX:b:i:t=scherzando	!	!	!
8r	.	8B#X)	.	8e#X)	.	2r	.
(8FFL 8C	.	8AnJ	.	8g#XJ	.	.	.
8D 8A	.	(8AL	.	(8BL	.	.	.
8FFJ 8C)	.	8G#X)	.	8c#X)	.	.	.
!!LO:REH:t=110
=110	=110	=110	=110	=110	=110	=110	=110
8r	.	8FnJ	.	8enJ	.	2r	.
(8FFL 8C	.	(8BnL	.	(8c#XL	.	.	.
8D 8A	.	8A#X)	.	8d#X)	.	.	.
8FFJ 8C)	.	8GnJ	.	8f#XJ	.	.	.
=111	=111	=111	=111	=111	=111	=111	=111
8r	.	2r	.	2r	.	2r	.
(8FFL 8C	f <	.	.	.	.	.	.
8D-X 8A-X	[ >	.	.	.	.	.	.
8FFJ 8C)	]	.	.	.	.	.	.
=112	=112	=112	=112	=112	=112	=112	=112
8r	.	(8AL 8e	f	2r	.	2r	.
8r	.	8f 8cc	.	.	.	.	.
(8FFL 8C	.	8G#XJ 8d#X)	.	.	.	.	.
/8Dn 8An	.	8r	.	.	.	.	.
=113	=113	=113	=113	=113	=113	=113	=113
8EEJ 8BB)	.	8r	.	2r	.	2r	.
8r	.	(8GnL 8dn	<	.	.	.	.
8r	.	8e-X 8b-X	[ >	.	.	.	.
(8EEL 8BB	<	8GJ 8d)	]	.	.	.	.
=114	=114	=114	=114	=114	=114	=114	=114
/8C 8G	[ >	8r	.	8r	.	8r	.
8EE-XJ 8BB-X)	]	(8fL	mf	(8ffL	mf	(8ggL	mf
4r	.	8e)	.	8ee)	.	8aa)	.
.	.	8d-XJ	.	8dd-XJ	.	8cccJ	.
!!linebreak:original
!!LO:REH:t=115
=115	=115	=115	=115	=115	=115	=115	=115
(8EnL 8Bn	.	4r	.	4r	.	4r	.
8c 8g	.	.	.	.	.	.	.
8E-XJ 8B-X)	.	8r	.	8r	.	8r	.
8r	.	(8GL	f	(8fL	f	(8gL	f
=116	=116	=116	=116	=116	=116	=116	=116
4r	.	8A)	.	8e)	.	8a)	.
.	.	/8cnJ	.	8c#X	.	/8cc	.
(8EEnL 8BBn	.	4r	.	8BJ	.	8dJ 8dd	.
/8C 8G	.	.	.	8r	.	8r	.
=117	=117	=117	=117	=117	=117	=117	=117
8EE-XJ 8BB-X)	.	(8AL 8e	.	2r	.	2r	.
8r	.	8g 8cc	.	.	.	.	.
8r	<	8GJ 8d)	.	.	.	.	.
(8EnL 8Bn	[	8r	.	.	.	.	.
=118	=118	=118	=118	=118	=118	=118	=118
8c 8g	>	4r	.	2r	.	2r	.
8E-XJ 8B-X)	]	.	.	.	.	.	.
8r	]	(8AL 8e	.	.	.	.	.
8r	.	8g 8cc	.	.	.	.	.
=119	=119	=119	=119	=119	=119	=119	=119
(8EEnL 8BBn	.	8GJ \8d)	.	2r	.	2r	.
8C 8G	.	8r	.	.	.	.	.
8EE-XJ 8BB-X)	.	8r	.	.	.	.	.
8r	.	(8AL 8e	<	.	.	.	.
!!LO:REH:t=120
=120	=120	=120	=120	=120	=120	=120	=22
2r	.	8g 8cc	[ >	8r	.	8r	.
.	.	8GJ \8d)	]	(8b-XL	f <	(8ccL	f <
.	.	4r	.	8an)	.	8dd)	.
.	.	.	.	8g-XJ	[[	8ffJ	[[
=121	=121	=121	=121	=121	=121	=121	=121
2r	.	4E-X~ 4A-X 4e-X	ff	4e-X~ 4a-X 4ee-X	ff	4a-X~ 4ee-X 4aa-X	ff
.	.	4E-~ 4A- 4e-	.	4e-~ 4a- 4ee-	.	4a-~ 4ee- 4aa-	.
=122	=122	=122	=122	=122	=122	=122	=122
2r	.	4E-X~ 4A-X 4e-X	.	4e-X~ 4a-X 4ee-X	.	4a-X~ 4ee-X 4aa-X	.
.	.	4E-~ 4A- 4e-	.	4e-~ 4a- 4ee-	.	4a-~ 4ee- 4aa-	.
=	=	=	=	=	=	=	=
*-	*-	*-	*-	*-	*-	*-	*-
!!!system-decoration: [(s1,s2,s3,s4)]
!!!EED: Daniel Wright
!!!EEV: 2021/07/13
!!!EED2: Jason Lee
!!!EEV2: 2022/02/02
